icons/src/scalable/emblems/money-none-symbolic.svg

<?xml version="1.0" encoding="UTF-8" standalone="no"?>
<svg
   height="16px"
   viewBox="0 0 16 16"
   width="16px"
   version="1.1"
   id="svg167"
   sodipodi:docname="money-none-symbolic.svg"
   inkscape:version="1.1 (c68e22c387, 2021-05-23)"
   xmlns:inkscape="http://www.inkscape.org/namespaces/inkscape"
   xmlns:sodipodi="http://sodipodi.sourceforge.net/DTD/sodipodi-0.dtd"
   xmlns="http://www.w3.org/2000/svg"
   xmlns:svg="http://www.w3.org/2000/svg">
  <defs
     id="defs171" />
  <sodipodi:namedview
     id="namedview169"
     pagecolor="#ffffff"
     bordercolor="#666666"
     borderopacity="1.0"
     inkscape:pageshadow="2"
     inkscape:pageopacity="0.0"
     inkscape:pagecheckerboard="0"
     showgrid="true"
     inkscape:zoom="11.75565"
     inkscape:cx="12.036765"
     inkscape:cy="18.246545"
     inkscape:window-width="1366"
     inkscape:window-height="704"
     inkscape:window-x="0"
     inkscape:window-y="27"
     inkscape:window-maximized="1"
     inkscape:current-layer="svg167">
    <inkscape:grid
       type="xygrid"
       id="grid1068" />
  </sodipodi:namedview>
  <filter
     id="a"
     height="1"
     width="1"
     x="0"
     y="0">
    <feColorMatrix
       in="SourceGraphic"
       type="matrix"
       values="0 0 0 0 1 0 0 0 0 1 0 0 0 0 1 0 0 0 1 0"
       id="feColorMatrix2" />
  </filter>
  <mask
     id="b">
    <g
       filter="url(#a)"
       id="g7">
      <path
         d="m 0 0 h 16 v 16 h -16 z"
         fill-opacity="0.3"
         id="path5" />
    </g>
  </mask>
  <clipPath
     id="c">
    <path
       d="m 0 0 h 1024 v 800 h -1024 z"
       id="path10" />
  </clipPath>
  <mask
     id="d">
    <g
       filter="url(#a)"
       id="g15">
      <path
         d="m 0 0 h 16 v 16 h -16 z"
         fill-opacity="0.05"
         id="path13" />
    </g>
  </mask>
  <clipPath
     id="e">
    <path
       d="m 0 0 h 1024 v 800 h -1024 z"
       id="path18" />
  </clipPath>
  <mask
     id="f">
    <g
       filter="url(#a)"
       id="g23">
      <path
         d="m 0 0 h 16 v 16 h -16 z"
         fill-opacity="0.05"
         id="path21" />
    </g>
  </mask>
  <clipPath
     id="g">
    <path
       d="m 0 0 h 1024 v 800 h -1024 z"
       id="path26" />
  </clipPath>
  <mask
     id="h">
    <g
       filter="url(#a)"
       id="g31">
      <path
         d="m 0 0 h 16 v 16 h -16 z"
         fill-opacity="0.05"
         id="path29" />
    </g>
  </mask>
  <clipPath
     id="i">
    <path
       d="m 0 0 h 1024 v 800 h -1024 z"
       id="path34" />
  </clipPath>
  <mask
     id="j">
    <g
       filter="url(#a)"
       id="g39">
      <path
         d="m 0 0 h 16 v 16 h -16 z"
         fill-opacity="0.05"
         id="path37" />
    </g>
  </mask>
  <clipPath
     id="k">
    <path
       d="m 0 0 h 1024 v 800 h -1024 z"
       id="path42" />
  </clipPath>
  <mask
     id="l">
    <g
       filter="url(#a)"
       id="g47">
      <path
         d="m 0 0 h 16 v 16 h -16 z"
         fill-opacity="0.05"
         id="path45" />
    </g>
  </mask>
  <clipPath
     id="m">
    <path
       d="m 0 0 h 1024 v 800 h -1024 z"
       id="path50" />
  </clipPath>
  <mask
     id="n">
    <g
       filter="url(#a)"
       id="g55">
      <path
         d="m 0 0 h 16 v 16 h -16 z"
         fill-opacity="0.05"
         id="path53" />
    </g>
  </mask>
  <clipPath
     id="o">
    <path
       d="m 0 0 h 1024 v 800 h -1024 z"
       id="path58" />
  </clipPath>
  <mask
     id="p">
    <g
       filter="url(#a)"
       id="g63">
      <path
         d="m 0 0 h 16 v 16 h -16 z"
         fill-opacity="0.3"
         id="path61" />
    </g>
  </mask>
  <clipPath
     id="q">
    <path
       d="m 0 0 h 1024 v 800 h -1024 z"
       id="path66" />
  </clipPath>
  <mask
     id="r">
    <g
       filter="url(#a)"
       id="g71">
      <path
         d="m 0 0 h 16 v 16 h -16 z"
         fill-opacity="0.5"
         id="path69" />
    </g>
  </mask>
  <clipPath
     id="s">
    <path
       d="m 0 0 h 1024 v 800 h -1024 z"
       id="path74" />
  </clipPath>
  <mask
     id="t">
    <g
       filter="url(#a)"
       id="g79">
      <path
         d="m 0 0 h 16 v 16 h -16 z"
         fill-opacity="0.4"
         id="path77" />
    </g>
  </mask>
  <clipPath
     id="u">
    <path
       d="m 0 0 h 1024 v 800 h -1024 z"
       id="path82" />
  </clipPath>
  <mask
     id="v">
    <g
       filter="url(#a)"
       id="g87">
      <path
         d="m 0 0 h 16 v 16 h -16 z"
         fill-opacity="0.4"
         id="path85" />
    </g>
  </mask>
  <clipPath
     id="w">
    <path
       d="m 0 0 h 1024 v 800 h -1024 z"
       id="path90" />
  </clipPath>
  <mask
     id="x">
    <g
       filter="url(#a)"
       id="g95">
      <path
         d="m 0 0 h 16 v 16 h -16 z"
         fill-opacity="0.5"
         id="path93" />
    </g>
  </mask>
  <clipPath
     id="y">
    <path
       d="m 0 0 h 1024 v 800 h -1024 z"
       id="path98" />
  </clipPath>
  <mask
     id="z">
    <g
       filter="url(#a)"
       id="g103">
      <path
         d="m 0 0 h 16 v 16 h -16 z"
         fill-opacity="0.5"
         id="path101" />
    </g>
  </mask>
  <clipPath
     id="A">
    <path
       d="m 0 0 h 1024 v 800 h -1024 z"
       id="path106" />
  </clipPath>
  <g
     clip-path="url(#c)"
     mask="url(#b)"
     transform="matrix(1 0 0 1 -220 -60)"
     id="g111">
    <path
       d="m 562.460938 212.058594 h 10.449218 c -1.183594 0.492187 -1.296875 2.460937 0 3 h -10.449218 z m 0 0"
       fill="#2e3436"
       id="path109" />
  </g>
  <g
     clip-path="url(#e)"
     mask="url(#d)"
     transform="matrix(1 0 0 1 -220 -60)"
     id="g115">
    <path
       d="m 16 632 h 1 v 1 h -1 z m 0 0"
       fill="#2e3436"
       fill-rule="evenodd"
       id="path113" />
  </g>
  <g
     clip-path="url(#g)"
     mask="url(#f)"
     transform="matrix(1 0 0 1 -220 -60)"
     id="g119">
    <path
       d="m 17 631 h 1 v 1 h -1 z m 0 0"
       fill="#2e3436"
       fill-rule="evenodd"
       id="path117" />
  </g>
  <g
     clip-path="url(#i)"
     mask="url(#h)"
     transform="matrix(1 0 0 1 -220 -60)"
     id="g123">
    <path
       d="m 18 634 h 1 v 1 h -1 z m 0 0"
       fill="#2e3436"
       fill-rule="evenodd"
       id="path121" />
  </g>
  <g
     clip-path="url(#k)"
     mask="url(#j)"
     transform="matrix(1 0 0 1 -220 -60)"
     id="g127">
    <path
       d="m 16 634 h 1 v 1 h -1 z m 0 0"
       fill="#2e3436"
       fill-rule="evenodd"
       id="path125" />
  </g>
  <g
     clip-path="url(#m)"
     mask="url(#l)"
     transform="matrix(1 0 0 1 -220 -60)"
     id="g131">
    <path
       d="m 17 635 h 1 v 1 h -1 z m 0 0"
       fill="#2e3436"
       fill-rule="evenodd"
       id="path129" />
  </g>
  <g
     clip-path="url(#o)"
     mask="url(#n)"
     transform="matrix(1 0 0 1 -220 -60)"
     id="g135">
    <path
       d="m 19 635 h 1 v 1 h -1 z m 0 0"
       fill="#2e3436"
       fill-rule="evenodd"
       id="path133" />
  </g>
  <g
     clip-path="url(#q)"
     mask="url(#p)"
     transform="matrix(1 0 0 1 -220 -60)"
     id="g139">
    <path
       d="m 136 660 v 7 h 7 v -7 z m 0 0"
       fill="#2e3436"
       id="path137" />
  </g>
  <g
     clip-path="url(#s)"
     mask="url(#r)"
     transform="matrix(1 0 0 1 -220 -60)"
     id="g143">
    <path
       d="m 199 642 h 3 v 12 h -3 z m 0 0"
       fill="#2e3436"
       id="path141" />
  </g>
  <g
     clip-path="url(#u)"
     mask="url(#t)"
     transform="matrix(1 0 0 1 -220 -60)"
     id="g147">
    <path
       d="m 209.5 144.160156 c 0.277344 0 0.5 0.222656 0.5 0.5 v 1 c 0 0.277344 -0.222656 0.5 -0.5 0.5 s -0.5 -0.222656 -0.5 -0.5 v -1 c 0 -0.277344 0.222656 -0.5 0.5 -0.5 z m 0 0"
       fill="#2e3436"
       id="path145" />
  </g>
  <g
     clip-path="url(#w)"
     mask="url(#v)"
     transform="matrix(1 0 0 1 -220 -60)"
     id="g151">
    <path
       d="m 206.5 144.160156 c 0.277344 0 0.5 0.222656 0.5 0.5 v 1 c 0 0.277344 -0.222656 0.5 -0.5 0.5 s -0.5 -0.222656 -0.5 -0.5 v -1 c 0 -0.277344 0.222656 -0.5 0.5 -0.5 z m 0 0"
       fill="#2e3436"
       id="path149" />
  </g>
  <g
     clip-path="url(#y)"
     mask="url(#x)"
     transform="matrix(1 0 0 1 -220 -60)"
     id="g155">
    <path
       d="m 229.5 143.160156 c -0.546875 0 -1 0.457032 -1 1 c 0 0.546875 0.453125 1 1 1 s 1 -0.453125 1 -1 c 0 -0.542968 -0.453125 -1 -1 -1 z m 0 0"
       fill="#2e3436"
       id="path153" />
  </g>
  <g
     clip-path="url(#A)"
     mask="url(#z)"
     transform="matrix(1 0 0 1 -220 -60)"
     id="g159">
    <path
       d="m 226.453125 143.160156 c -0.519531 0 -0.953125 0.433594 -0.953125 0.953125 v 0.09375 c 0 0.519531 0.433594 0.953125 0.953125 0.953125 h 0.09375 c 0.519531 0 0.953125 -0.433594 0.953125 -0.953125 v -0.09375 c 0 -0.519531 -0.433594 -0.953125 -0.953125 -0.953125 z m 0 0"
       fill="#2e3436"
       id="path157" />
  </g>
  <g
     aria-label="$"
     id="text9439"
     style="font-size:15.8192px;line-height:1.25;fill:#808080;stroke-width:0.395481"
     transform="translate(-0.1401154)">
    <path
       id="path17389"
       style="font-weight:bold;font-family:Ubuntu;-inkscape-font-specification:'Ubuntu Bold';fill:#808080;fill-opacity:1"
       d="M 1.7070312 0.25 L 1 0.95703125 L 15.021484 14.978516 L 15.728516 14.271484 L 11.716797 10.259766 C 11.718544 10.23181 11.720703 10.203896 11.720703 10.175781 C 11.720703 9.7117524 11.635535 9.305054 11.466797 8.9570312 C 11.308605 8.6090092 11.082401 8.3077947 10.787109 8.0546875 C 10.502363 7.7910342 10.158566 7.5597515 9.7578125 7.359375 C 9.3676056 7.1589985 8.9405924 6.9734256 8.4765625 6.8046875 C 8.346575 6.7598643 8.2480734 6.7227072 8.140625 6.6835938 L 6.7460938 5.2890625 C 6.7864693 5.1006108 6.8849583 4.9403294 7.0527344 4.8125 C 7.2742032 4.6437618 7.6383173 4.5585938 8.1445312 4.5585938 C 8.6507458 4.5585937 9.1305007 4.6113356 9.5839844 4.7167969 C 10.048014 4.8222582 10.454712 4.9500103 10.802734 5.0976562 L 11.292969 3.1992188 C 11.060954 3.0937572 10.744503 2.9882738 10.34375 2.8828125 C 9.953543 2.7773512 9.5444923 2.6972624 8.9960938 2.6445312 L 8.9960938 1 L 7.0039062 1 L 7.0039062 2.7089844 C 6.5398764 2.7933535 6.0777106 2.9293102 5.7402344 3.1191406 C 5.4783107 3.2582875 5.2577642 3.4251131 5.0722656 3.6152344 L 1.7070312 0.25 z M 4.3027344 5.7167969 C 4.3086173 6.148031 4.3850371 6.5236079 4.5371094 6.8378906 C 4.7058475 7.1542746 4.9218936 7.4230624 5.1855469 7.6445312 C 5.4597464 7.8660001 5.7609605 8.0546986 6.0878906 8.2128906 C 6.4253668 8.3605365 6.7691651 8.4984464 7.1171875 8.625 C 7.1698237 8.6435775 7.2148069 8.6613373 7.265625 8.6796875 L 4.3027344 5.7167969 z M 4.6796875 10.507812 L 4 12.326172 C 4.2320149 12.44218 4.5859709 12.590247 5.0605469 12.769531 C 5.545669 12.938269 6.2340386 13.053907 7.0039062 13.117188 L 7.0039062 15 L 8.9960938 15 L 8.9960938 13.070312 C 9.5128543 12.985945 9.8843985 12.848033 10.232422 12.658203 C 10.461835 12.536749 10.660692 12.39972 10.833984 12.248047 L 9.2148438 10.628906 C 9.1543205 10.759844 9.0621596 10.873214 8.9355469 10.966797 C 8.703532 11.135534 8.266361 11.21875 7.6230469 11.21875 C 7.0535557 11.21875 6.5109011 11.145692 5.9941406 10.998047 C 5.4879262 10.850401 5.0488022 10.6871 4.6796875 10.507812 z "
       transform="translate(0.1401154)" />
  </g>
</svg>

<svg version="1.1" viewBox="0 0 16 16" xmlns="http://www.w3.org/2000/svg">
 <path d="m1.707 0.25-0.70703 0.70703 14.021 14.021 0.70703-0.70703-4.0117-4.0117c0.0017-0.02796 0.0039-0.05587 0.0039-0.08399 0-0.46403-0.08517-0.87073-0.25391-1.2187-0.15819-0.34802-0.38439-0.64923-0.67968-0.90234-0.28475-0.26365-0.62854-0.49494-1.0293-0.69531-0.39021-0.20038-0.81722-0.38595-1.2812-0.55469-0.12999-0.044823-0.22849-0.08198-0.33594-0.12109l-1.3945-1.3945c0.040376-0.18845 0.13886-0.34873 0.30664-0.47656 0.22147-0.16874 0.58558-0.25391 1.0918-0.25391 0.50621-1e-7 0.98597 0.052742 1.4395 0.1582 0.46403 0.10546 0.87073 0.23321 1.2187 0.38086l0.49024-1.8984c-0.23202-0.10546-0.54847-0.21094-0.94922-0.31641-0.39021-0.10546-0.79926-0.18555-1.3477-0.23828v-1.6445h-1.9922v1.709c-0.46403 0.084369-0.9262 0.22033-1.2637 0.41016-0.26192 0.13915-0.48247 0.30597-0.66797 0.49609zm2.5957 5.4668c0.00588 0.43123 0.082303 0.80681 0.23438 1.1211 0.16874 0.31638 0.38478 0.58517 0.64844 0.80664 0.2742 0.22147 0.57541 0.41017 0.90234 0.56836 0.33748 0.14765 0.68127 0.28556 1.0293 0.41211 0.052636 0.01858 0.097619 0.03634 0.14844 0.05469zm0.37695 4.791-0.67969 1.8184c0.23201 0.11601 0.58597 0.26408 1.0605 0.44336 0.48512 0.16874 1.1735 0.28438 1.9434 0.34766v1.8828h1.9922v-1.9297c0.51676-0.08437 0.8883-0.22228 1.2363-0.41211 0.22941-0.12145 0.42827-0.25848 0.60156-0.41016l-1.6191-1.6191c-0.06052 0.13094-0.15268 0.24431-0.2793 0.33789-0.23202 0.16874-0.66919 0.25195-1.3125 0.25195-0.56949 0-1.1121-0.07306-1.6289-0.2207-0.50621-0.14765-0.94534-0.31095-1.3145-0.49024z" fill="#808080" stroke-width=".39548"/>
</svg>
